assets/images/by_culture.svg

<svg fill="none" height="20" viewBox="0 0 20 20" width="20" xmlns="http://www.w3.org/2000/svg"><g fill="#000"><path d="m9.95864 3.88994v-1.63795c0-.15119-.1008-.25199-.25199-.25199-.1512 0-.252.1008-.252.25199v1.63795l-.73077 4.28388h2.04112z"/><path d="m11.2688 8.90459c0-.0504-.0252-.1008-.0756-.1512 0 0-.0251-.0252-.1007-.07559h-2.72157c-.05039.05039-.10079.07559-.10079.07559-.0504.0504-.0756.1008-.0756.1512-.30239 2.36871-.52918 3.45231-.68038 3.90591h4.40984c-.1008-.4536-.3528-1.5372-.6552-3.90591z"/><path d="m12.3526 13.3145h-5.21624c-.93237.6803-1.05837 1.6883-1.03317 2.2175h7.30781c0-.5292-.126-1.5372-1.0584-2.2175z"/><path d="m14.5701 17.1699h-.1764v-.5796c0-.0756-.0252-.1512-.1008-.2016l-.4788-.378h-8.11418l-.47879.378c-.0756.0504-.1008.126-.1008.2016v.5796h-.20159c-.15119 0-.25199.126-.25199.252v.9576c0 .1512.1008.252.25199.252h9.62616c.1512 0 .2519-.1008.2519-.252v-.9576c.0252-.1512-.1007-.252-.2267-.252z"/></g></svg>

<svg width="20" height="20" viewBox="0 0 20 20" fill="none" xmlns="http://www.w3.org/2000/svg">
<path d="M9.95864 3.88994V2.25199C9.95864 2.1008 9.85784 2 9.70665 2C9.55545 2 9.45465 2.1008 9.45465 2.25199V3.88994L8.72388 8.17382H10.765L9.95864 3.88994Z" fill="black"/>
<path d="M11.2688 8.90459C11.2688 8.85419 11.2436 8.80379 11.1932 8.75339C11.1932 8.75339 11.1681 8.72819 11.0925 8.6778H8.37093C8.32054 8.72819 8.27014 8.75339 8.27014 8.75339C8.21974 8.80379 8.19454 8.85419 8.19454 8.90459C7.89215 11.2733 7.66536 12.3569 7.51416 12.8105H11.924C11.8232 12.3569 11.5712 11.2733 11.2688 8.90459Z" fill="black"/>
<path d="M12.3526 13.3145H7.13636C6.20399 13.9948 6.07799 15.0028 6.10319 15.532H13.411C13.411 15.0028 13.285 13.9948 12.3526 13.3145Z" fill="black"/>
<path d="M14.5701 17.1699H14.3937V16.5903C14.3937 16.5147 14.3685 16.4391 14.2929 16.3887L13.8141 16.0107H5.69992L5.22113 16.3887C5.14553 16.4391 5.12033 16.5147 5.12033 16.5903V17.1699H4.91874C4.76755 17.1699 4.66675 17.2959 4.66675 17.4219V18.3795C4.66675 18.5307 4.76755 18.6315 4.91874 18.6315H14.5449C14.6961 18.6315 14.7968 18.5307 14.7968 18.3795V17.4219C14.822 17.2707 14.6961 17.1699 14.5701 17.1699Z" fill="black"/>
</svg>
